material/.icons/material/file-document.svg

<?xml version="1.0" encoding="UTF-8"?><!DOCTYPE svg PUBLIC "-//W3C//DTD SVG 1.1//EN" "http://www.w3.org/Graphics/SVG/1.1/DTD/svg11.dtd"><svg xmlns="http://www.w3.org/2000/svg" xmlns:xlink="http://www.w3.org/1999/xlink" version="1.1" id="mdi-file-document" width="24" height="24" viewBox="0 0 24 24"><path d="M13,9H18.5L13,3.5V9M6,2H14L20,8V20A2,2 0 0,1 18,22H6C4.89,22 4,21.1 4,20V4C4,2.89 4.89,2 6,2M15,18V16H6V18H15M18,14V12H6V14H18Z" /></svg>

<svg xmlns="http://www.w3.org/2000/svg" viewBox="0 0 24 24"><path d="M13 9h5.5L13 3.5V9M6 2h8l6 6v12a2 2 0 01-2 2H6a2 2 0 01-2-2V4c0-1.11.89-2 2-2m9 16v-2H6v2h9m3-4v-2H6v2h12z"/></svg>
